images/tiles/t13.svg

<svg xmlns="http://www.w3.org/2000/svg" width="1200" height="1200">
  <style>
    .primary {
      fill: #DEE1E6;
    }
    .secondary {
      fill: #F1F3F4;
    }
    .stroke {
      stroke: #292F33;
      stroke-width: 30;
      fill:none;
    }
  </style>
  <path class="primary" d="M 0,1200 V 800 H 400 C 400,550 800,550 800,800 H 1200 V 1200 H 800 V 800 H 400 V 1200 Z M 0,0 H 400 C 400,106.4 456.6,212.8 600,289.1 474,356.2 280.7,400 0,400 Z M 1200,0 V 400 C 919.3,400 726,356.2 600,289.1 743.4,212.8 800,106.4 800,0.1 V 0 Z" />
  <path class="secondary" d="M 0,800 V 400 C 280.74669,400 473.91705,356.21183 600,289.12446 726.08298,356.21184 919.25333,400 1200,400 V 800 H 800 C 800,550 400,550 400,800 Z M 600.00003,289.12446 C 743.3763,212.83553 800,106.41778 800,0 H 400 C 400,106.41778 456.62371,212.83555 600,289.12448 M 800,800 V 800 1200 H 400 V 800 M 400,800 800,800" />
  <path class="stroke" d="M0 400c600 0 800-200 800-400M400 0c0 200 200 400 800 400M0 800h1200M400 1200V800c0-250 400-250 400 0v400" />
</svg>

<svg xmlns="http://www.w3.org/2000/svg" width="1200" height="1200">
  <style>
    .fillColor {
      fill: #dee1e6;
    }
    .strokeColor {
      stroke: #292F33;
      stroke-width: 30;
    }
  </style>
  <g id="group">
    <path class="fillColor" style="stroke-width:0;" d="M0 1200V800h400c0-250 400-250 400 0h400v400H800V800H400v400H0zM0 0h400c0 106.4 56.6 212.8 200 289.1C474 356.2 280.7 400 0 400V0zm1200 0v400c-280.7 0-474-43.8-600-110.9 143.4-76.3 200-182.7 200-289V0h400z"/>
    <path class="strokeColor" style="fill:none;" d="M0 400c600 0 800-200 800-400M400 0c0 200 200 400 800 400M0 800h1200M400 1200V800c0-250 400-250 400 0v400"/>
  </g>
</svg>
